cSurveyPC/Resources/swissknife.svg

<?xml version="1.0" encoding="UTF-8" standalone="no"?>
<svg
   xmlns:dc="http://purl.org/dc/elements/1.1/"
   xmlns:cc="http://creativecommons.org/ns#"
   xmlns:rdf="http://www.w3.org/1999/02/22-rdf-syntax-ns#"
   xmlns:svg="http://www.w3.org/2000/svg"
   xmlns="http://www.w3.org/2000/svg"
   xmlns:sodipodi="http://sodipodi.sourceforge.net/DTD/sodipodi-0.dtd"
   xmlns:inkscape="http://www.inkscape.org/namespaces/inkscape"
   version="1.1"
   id="Capa_1"
   x="0px"
   y="0px"
   viewBox="0 0 58.74 58.74"
   style="enable-background:new 0 0 58.74 58.74;"
   xml:space="preserve"
   sodipodi:docname="swiss-army-knife.svg"
   inkscape:version="1.0.1 (3bc2e813f5, 2020-09-07)"><metadata
   id="metadata55"><rdf:RDF><cc:Work
       rdf:about=""><dc:format>image/svg+xml</dc:format><dc:type
         rdf:resource="http://purl.org/dc/dcmitype/StillImage" /></cc:Work></rdf:RDF></metadata><defs
   id="defs53" /><sodipodi:namedview
   pagecolor="#ffffff"
   bordercolor="#666666"
   borderopacity="1"
   objecttolerance="10"
   gridtolerance="10"
   guidetolerance="10"
   inkscape:pageopacity="0"
   inkscape:pageshadow="2"
   inkscape:window-width="2560"
   inkscape:window-height="1017"
   id="namedview51"
   showgrid="false"
   inkscape:zoom="10.232222"
   inkscape:cx="38.719085"
   inkscape:cy="28.649619"
   inkscape:window-x="-8"
   inkscape:window-y="-8"
   inkscape:window-maximized="1"
   inkscape:current-layer="Capa_1" />
<path
   style="fill:#808080;stroke-width:0.723395"
   d="m 15.26589,30.318194 0.199811,0.309086 2.398004,4.248731 3.892617,-1.234144 -1.352132,-3.488738 3.761725,-1.13067 -1.352132,-3.488739 3.761725,-1.130669 -1.352131,-3.48874 3.761723,-1.13067 -1.352131,-3.488738 3.635473,-1.094191 c 0.04677,-0.01388 0.05525,-0.08326 0.01331,-0.110129 l -3.483111,-2.216044 c -1.646588,-1.041451 -3.751598,-0.408426 -4.702016,1.413556 -1.13e-4,7.51e-4 -9.177137,15.879927 -9.080051,16.030104 z"
   id="path14"
   sodipodi:nodetypes="ccccccccccccccccc" /><path
   style="fill:#c7cac7;stroke-width:1.02445"
   d="m 41.126828,19.229346 0.0227,13.642921 9.000042,-0.0165 -0.03841,-23.0884772 v 0 c -4.970953,0.00911 -8.993006,4.2450262 -8.984327,9.4620492 z"
   id="path2" />
<path
   style="fill:#c7cac7"
   d="m 14.150111,31.830334 4.09697,-0.0072 -4.022525,-7.573173 c -0.04684,-0.0975 -0.180496,-0.105044 -0.248941,-0.02219 C 10.142729,28.880206 9.0459488,19.128983 8.7654841,17.251394 8.7390113,17.073956 8.652458,16.910058 8.5214274,16.786543 L 5.0671675,13.525029 C 4.6474596,12.895022 3.828942,12.669469 3.1457375,12.995225 l -2.158414,1.031196 c -0.67119235,0.320785 -1.01210795,1.0794 -0.80650616,1.793927 L 1.5069099,20.426962 8.5392453,34.685533 C 9.8146898,32.96362 11.853431,31.834345 14.150111,31.830334 Z"
   id="path4" />
<path
   style="fill:#dd352e"
   d="m 48.174319,45.770954 -34.00047,0.05937 c -3.849484,0.0067 -7.0051403,-3.137934 -7.0118617,-6.987417 v 0 c -0.00672,-3.849483 3.1379337,-7.00514 6.9874177,-7.011861 l 34.00047,-0.05937 c 3.849484,-0.0067 7.00514,3.137934 7.011862,6.987418 v 0 c 0.0067,3.849483 -3.137934,7.005139 -6.987418,7.011861 z"
   id="path6" />
<path
   style="fill:#ffffff"
   d="M 46.427734,23.481014 C 46.246399,23.300311 46.134239,23.050191 46.133757,22.77442 l -0.0098,-5.999794 c -9.65e-4,-0.552956 0.445145,-1.000627 0.998102,-1.001593 0.552957,-9.65e-4 1.000628,0.445145 1.001593,0.998102 l 0.0098,5.999793 c 9.66e-4,0.552957 -0.445145,1.000628 -0.998101,1.001593 -0.275772,4.82e-4 -0.526282,-0.110804 -0.707617,-0.291507 z"
   id="path8" />



<path
   style="fill:#ffffff"
   d="M 6.6701372,26.863941 C 6.5830114,26.777119 6.5107038,26.672594 6.4588765,26.553183 L 4.589532,22.240968 c -0.2200892,-0.50732 0.012937,-1.095333 0.5188417,-1.31542 0.5073216,-0.218675 1.0974552,0.01364 1.3154219,0.520256 l 1.8693445,4.312215 c 0.2200892,0.507319 -0.012937,1.095333 -0.5188417,1.31542 -0.3872026,0.167553 -0.8222417,0.07144 -1.1041612,-0.209498 z"
   id="path16" />

<g
   id="g20">
</g>
<g
   id="g22">
</g>
<g
   id="g24">
</g>
<g
   id="g26">
</g>
<g
   id="g28">
</g>
<g
   id="g30">
</g>
<g
   id="g32">
</g>
<g
   id="g34">
</g>
<g
   id="g36">
</g>
<g
   id="g38">
</g>
<g
   id="g40">
</g>
<g
   id="g42">
</g>
<g
   id="g44">
</g>
<g
   id="g46">
</g>
<g
   id="g48">
</g>
<style
   type="text/css"
   id="style2">
	.Blue{fill:#1177D7;}
	.Yellow{fill:#FFB115;}
	.Red{fill:#D11C1C;}
</style><style
   type="text/css"
   id="style839">
	.Black{fill:#727272;}
</style><style
   type="text/css"
   id="style852">
	.Black{fill:#727272;}
	.Red_x0020_2{fill:#D11C1C;}
</style><style
   type="text/css"
   id="style2-8">
	.Blue{fill:#1177D7;}
	.Yellow{fill:#FFB115;}
	.Red{fill:#D11C1C;}
</style><style
   type="text/css"
   id="style1041">
	.Green{fill:#039C23;}
	.Blue{fill:#1177D7;}
	.Black{fill:#727272;}
	.Yellow{fill:#FFB115;}
	.White{fill:#FFFFFF;}
	.Red{fill:#D11C1C;}
	.st0{opacity:0.2;}
</style><style
   type="text/css"
   id="style830">
	.Blue{fill:#1177D7;}
	.Red{fill:#D11C1C;}
	.Green{fill:#039C23;}
	.Yellow{fill:#FFB115;}
</style><style
   type="text/css"
   id="style1172">
	.Black{fill:#727272;}
	.Blue{fill:#1177D7;}
	.Green{fill:#039C23;}
	.Yellow{fill:#FFB115;}
	.Red{fill:#D11C1C;}
	.White{fill:#FFFFFF;}
	.st0{opacity:0.5;}
	.st1{opacity:0.75;}
	.st2{display:none;}
	.st3{display:inline;fill:#1177D7;}
	.st4{display:inline;fill:#727272;}
</style><style
   type="text/css"
   id="style1205">
	.Red{fill:#D11C1C;}
	.Yellow{fill:#FFB115;}
	.Blue{fill:#1177D7;}
	.Green{fill:#039C23;}
	.Black{fill:#727272;}
	.White{fill:#FFFFFF;}
	.st0{opacity:0.5;}
	.st1{opacity:0.75;}
	.st2{opacity:0.35;}
	.st3{opacity:0.65;}
</style><polygon
   class="Green"
   points="24,32 28,32 28,28 32,28 32,24 28,24 28,20 24,20 24,24 20,24 20,28 24,28 "
   id="polygon1176-6-4"
   style="fill:#ffffff"
   transform="matrix(0.85568628,0,0,0.85568628,22.903638,16.648887)" /></svg>

<?xml version="1.0" encoding="UTF-8" standalone="no"?>
<svg
   version="1.1"
   id="Capa_1"
   x="0px"
   y="0px"
   viewBox="0 0 58.74 58.74"
   style="enable-background:new 0 0 58.74 58.74;"
   xml:space="preserve"
   sodipodi:docname="swissknife.svg"
   inkscape:version="1.1 (c68e22c387, 2021-05-23)"
   xmlns:inkscape="http://www.inkscape.org/namespaces/inkscape"
   xmlns:sodipodi="http://sodipodi.sourceforge.net/DTD/sodipodi-0.dtd"
   xmlns="http://www.w3.org/2000/svg"
   xmlns:svg="http://www.w3.org/2000/svg"
   xmlns:rdf="http://www.w3.org/1999/02/22-rdf-syntax-ns#"
   xmlns:cc="http://creativecommons.org/ns#"
   xmlns:dc="http://purl.org/dc/elements/1.1/"><metadata
   id="metadata55"><rdf:RDF><cc:Work
       rdf:about=""><dc:format>image/svg+xml</dc:format><dc:type
         rdf:resource="http://purl.org/dc/dcmitype/StillImage" /></cc:Work></rdf:RDF></metadata><defs
   id="defs53" /><sodipodi:namedview
   pagecolor="#ffffff"
   bordercolor="#666666"
   borderopacity="1"
   objecttolerance="10"
   gridtolerance="10"
   guidetolerance="10"
   inkscape:pageopacity="0"
   inkscape:pageshadow="2"
   inkscape:window-width="2560"
   inkscape:window-height="1017"
   id="namedview51"
   showgrid="false"
   inkscape:zoom="9.961715"
   inkscape:cx="36.389316"
   inkscape:cy="28.659724"
   inkscape:window-x="-8"
   inkscape:window-y="-8"
   inkscape:window-maximized="1"
   inkscape:current-layer="Capa_1"
   inkscape:document-rotation="0"
   inkscape:pagecheckerboard="0" />
<path
   style="fill:#808080;stroke-width:0.723395"
   d="m 15.26589,30.318194 0.199811,0.309086 2.398004,4.248731 3.892617,-1.234144 -1.352132,-3.488738 3.761725,-1.13067 -1.352132,-3.488739 3.761725,-1.130669 -1.352131,-3.48874 3.761723,-1.13067 -1.352131,-3.488738 3.635473,-1.094191 c 0.04677,-0.01388 0.05525,-0.08326 0.01331,-0.110129 l -3.483111,-2.216044 c -1.646588,-1.041451 -3.751598,-0.408426 -4.702016,1.413556 -1.13e-4,7.51e-4 -9.177137,15.879927 -9.080051,16.030104 z"
   id="path14"
   sodipodi:nodetypes="ccccccccccccccccc"
   class="Black" /><path
   id="path2"
   style="fill:#c7cac7;stroke-width:1.02445"
   d="M 50.111328 9.7675781 C 45.140375 9.7766881 41.118274 14.011493 41.126953 19.228516 L 41.150391 32.873047 L 50.150391 32.855469 L 50.111328 9.7675781 z M 47.121094 15.773438 C 47.674051 15.772472 48.122082 16.218527 48.123047 16.771484 L 48.132812 22.771484 C 48.133778 23.324441 47.687722 23.772473 47.134766 23.773438 C 46.858994 23.77392 46.609069 23.661172 46.427734 23.480469 C 46.246399 23.299766 46.133295 23.051162 46.132812 22.775391 L 46.123047 16.775391 C 46.122082 16.222435 46.568137 15.774404 47.121094 15.773438 z "
   class="Black" />
<path
   id="path4"
   style="fill:#c7cac7"
   d="M 3.6757812 12.851562 C 3.4964117 12.866382 3.3172855 12.914655 3.1464844 12.996094 L 0.98828125 14.027344 C 0.3170889 14.348129 -0.023961165 15.105785 0.18164062 15.820312 L 1.5078125 20.427734 L 8.5390625 34.685547 C 9.814507 32.963634 11.853711 31.834089 14.150391 31.830078 L 18.248047 31.822266 L 14.224609 24.25 C 14.177769 24.1525 14.045008 24.145662 13.976562 24.228516 C 10.143676 28.880951 9.0460897 19.129542 8.765625 17.251953 C 8.7391522 17.074515 8.652515 16.910624 8.5214844 16.787109 L 5.0664062 13.525391 C 4.7516253 13.052885 4.21389 12.807103 3.6757812 12.851562 z M 5.4980469 20.84375 C 5.8882654 20.840583 6.2603531 21.06535 6.4238281 21.445312 L 8.2929688 25.757812 C 8.513058 26.265131 8.2793422 26.854132 7.7734375 27.074219 C 7.3862349 27.241772 6.9518414 27.144219 6.6699219 26.863281 C 6.5827961 26.776459 6.5108117 26.672145 6.4589844 26.552734 L 4.5898438 22.240234 C 4.3697545 21.732914 4.6015172 21.145868 5.1074219 20.925781 C 5.2342523 20.871112 5.367974 20.844806 5.4980469 20.84375 z "
   class="Black" />
<path
   id="path6"
   style="fill:#dd352e"
   d="M 48.150391 31.771484 L 14.148438 31.830078 C 10.298954 31.836799 7.1553894 34.994267 7.1621094 38.84375 C 7.1688308 42.693233 10.324344 45.836778 14.173828 45.830078 L 48.173828 45.771484 C 52.023312 45.764763 55.168809 42.609249 55.162109 38.759766 C 55.155387 34.910282 51.999875 31.764784 48.150391 31.771484 z M 43.439453 33.761719 L 46.863281 33.761719 L 46.863281 37.185547 L 50.285156 37.185547 L 50.285156 40.607422 L 46.863281 40.607422 L 46.863281 44.03125 L 43.439453 44.03125 L 43.439453 40.607422 L 40.017578 40.607422 L 40.017578 37.185547 L 43.439453 37.185547 L 43.439453 33.761719 z "
   class="Red" />






<g
   id="g20">
</g>
<g
   id="g22">
</g>
<g
   id="g24">
</g>
<g
   id="g26">
</g>
<g
   id="g28">
</g>
<g
   id="g30">
</g>
<g
   id="g32">
</g>
<g
   id="g34">
</g>
<g
   id="g36">
</g>
<g
   id="g38">
</g>
<g
   id="g40">
</g>
<g
   id="g42">
</g>
<g
   id="g44">
</g>
<g
   id="g46">
</g>
<g
   id="g48">
</g>
<style
   type="text/css"
   id="style1172">
	.Black{fill:#727272;}
	.Blue{fill:#1177D7;}
	.Green{fill:#039C23;}
	.Yellow{fill:#FFB115;}
	.Red{fill:#D11C1C;}
	.White{fill:#FFFFFF;}
	.st0{opacity:0.5;}
	.st1{opacity:0.75;}
	.st2{display:none;}
	.st3{display:inline;fill:#1177D7;}
	.st4{display:inline;fill:#727272;}
</style></svg>
